svg/rocky-linux.svg

<svg width="4096" height="4096" viewBox="0 0 192 192" fill="none" xmlns="http://www.w3.org/2000/svg">
<path fill-rule="evenodd" clip-rule="evenodd" d="M186.658 127.658C190.119 117.746 192 107.093 192 96C192 42.9807 149.019 0 96 0C42.9807 0 0 42.9807 0 96C0 122.234 10.523 146.011 27.5783 163.338L124.958 65.9584L149 90L186.658 127.658ZM169.122 158.205L124.958 114.042L55.7978 183.202C68.0269 188.849 81.6455 192 96 192C125.288 192 151.514 178.884 169.122 158.205Z" fill="#10B981"/>
</svg>

<svg xmlns="http://www.w3.org/2000/svg" width="4096" height="4096" fill="none" viewBox="0 0 192 192"><path fill="#10B981" fill-rule="evenodd" d="M186.658 127.658C190.119 117.746 192 107.093 192 96c0-53.02-42.981-96-96-96C42.98 0 0 42.98 0 96c0 26.234 10.523 50.011 27.578 67.338l97.38-97.38L149 90l37.658 37.658Zm-17.536 30.547-44.164-44.163-69.16 69.16C68.027 188.849 81.645 192 96 192c29.288 0 55.514-13.116 73.122-33.795Z" clip-rule="evenodd"/></svg>
